priv/static/svgs/icons_new/security-unlock.svg

<svg width="32" height="32" viewBox="0 0 32 32" fill="none" xmlns="http://www.w3.org/2000/svg">
<path d="M6.5 16.0769H6H6.5ZM6.5 22.5H7H6.5ZM22.5 25.5V26V25.5ZM9.5 25.5V26V25.5ZM25.5 16.0769H25H25.5ZM25.5 22.5H26H25.5ZM22.5 13.0769V13.5769V13.0769ZM9.5 13.0769L9.5 13.5769H9.5L9.5 13.0769ZM9.65385 12.3462C9.65385 12.6223 9.8777 12.8462 10.1538 12.8462C10.43 12.8462 10.6538 12.6223 10.6538 12.3462H9.65385ZM19.3411 8.17235C19.5566 8.34507 19.8713 8.31042 20.044 8.09496C20.2167 7.8795 20.182 7.56482 19.9666 7.3921L19.3411 8.17235ZM15.5 20.3846C15.5 20.6608 15.7239 20.8846 16 20.8846C16.2761 20.8846 16.5 20.6608 16.5 20.3846H15.5ZM16.5 17.4615C16.5 17.1854 16.2761 16.9615 16 16.9615C15.7239 16.9615 15.5 17.1854 15.5 17.4615H16.5ZM6 16.0769L6 22.5H7L7 16.0769H6ZM22.5 25L9.5 25V26L22.5 26V25ZM25 16.0769V22.5H26V16.0769H25ZM22.5 12.5769L9.50001 12.5769L9.5 13.5769L22.5 13.5769V12.5769ZM26 16.0769C26 14.1439 24.433 12.5769 22.5 12.5769V13.5769C23.8807 13.5769 25 14.6962 25 16.0769H26ZM7 16.0769C7 14.6962 8.11929 13.5769 9.5 13.5769L9.50001 12.5769C7.56701 12.5769 6 14.1439 6 16.0769H7ZM6 22.5C6 24.433 7.567 26 9.5 26V25C8.11929 25 7 23.8807 7 22.5H6ZM22.5 26C24.433 26 26 24.433 26 22.5H25C25 23.8807 23.8807 25 22.5 25V26ZM10.6538 12.3462C10.6538 9.39355 13.0474 7 16 7V6C12.4951 6 9.65385 8.84127 9.65385 12.3462H10.6538ZM16 7C17.2648 7 18.4258 7.43858 19.3411 8.17235L19.9666 7.3921C18.8802 6.52124 17.5003 6 16 6V7ZM16.5 20.3846L16.5 17.4615H15.5L15.5 20.3846H16.5Z" fill="black"/>
</svg>

<svg width="32" height="32" viewBox="0 0 32 32" fill="none" xmlns="http://www.w3.org/2000/svg">
  <symbol id="item" viewBox="0 0 32 32"  fill="none">
    <path d="M6.5 16.077H6h.5Zm0 6.423H7h-.5Zm16 3v.5-.5Zm-13 0v.5-.5Zm16-9.423H25h.5Zm0 6.423h.5-.5Zm-3-9.423v.5-.5Zm-13 0v.5-.5Zm.154-.73a.5.5 0 0 0 1 0h-1Zm9.687-4.175a.5.5 0 0 0 .626-.78l-.626.78ZM15.5 20.385a.5.5 0 1 0 1 0h-1Zm1-2.924a.5.5 0 0 0-1 0h1ZM6 16.078V22.5h1v-6.423H6ZM22.5 25h-13v1h13v-1Zm2.5-8.923V22.5h1v-6.423h-1Zm-2.5-3.5h-13v1h13v-1Zm3.5 3.5a3.5 3.5 0 0 0-3.5-3.5v1a2.5 2.5 0 0 1 2.5 2.5h1Zm-19 0a2.5 2.5 0 0 1 2.5-2.5v-1a3.5 3.5 0 0 0-3.5 3.5h1ZM6 22.5A3.5 3.5 0 0 0 9.5 26v-1A2.5 2.5 0 0 1 7 22.5H6ZM22.5 26a3.5 3.5 0 0 0 3.5-3.5h-1a2.5 2.5 0 0 1-2.5 2.5v1ZM10.654 12.346A5.346 5.346 0 0 1 16 7V6a6.346 6.346 0 0 0-6.346 6.346h1ZM16 7c1.265 0 2.426.439 3.341 1.172l.626-.78A6.322 6.322 0 0 0 16 6v1Zm.5 13.385V17.46h-1v2.924h1Z" fill="currentColor"/>
  </symbol>
</svg>
